Sources/FrostedUI/Resources/Icons.xcassets/dollarSignSlashed16.imageset/dollar-sign-slashed-16.svg

<svg width="16" height="16" viewBox="0 0 16 16" fill="none" xmlns="http://www.w3.org/2000/svg" data-fui-icon="true">
  <path
    d="M8.00037 0C8.41442 0.000191665 8.75037 0.335905 8.75037 0.75V1.28906C11.4294 1.56629 12.518 3.31066 12.7338 4.34766C12.8179 4.75296 12.558 5.14991 12.1527 5.23438C11.7473 5.31852 11.3494 5.05775 11.265 4.65234C11.1761 4.2264 10.6179 3.0512 8.75037 2.79883V7.38086C9.5576 7.54127 10.4185 7.75044 11.1176 8.14355C11.5759 8.40142 11.9948 8.75243 12.2953 9.24316C12.5973 9.73657 12.7494 10.3223 12.7494 11C12.7494 12.6406 11.3457 14.4187 8.75037 14.708V15.25C8.75037 15.6641 8.41442 15.9998 8.00037 16C7.58615 16 7.25037 15.6642 7.25037 15.25V14.709C6.04603 14.5785 5.15833 14.1383 4.52087 13.5771C3.77243 12.9182 3.41952 12.1412 3.26404 11.6543C3.13821 11.2599 3.35619 10.8371 3.75037 10.7109C4.14492 10.585 4.56771 10.8037 4.69373 11.1982C4.79476 11.5145 5.02738 12.0244 5.51208 12.4512C5.88048 12.7755 6.42778 13.0806 7.25037 13.1982V8.61914C6.44297 8.4587 5.58136 8.24971 4.8822 7.85645C4.42374 7.59851 4.00396 7.24778 3.70349 6.75684C3.40159 6.26347 3.24939 5.67766 3.24939 5C3.24939 3.3591 4.65592 1.58063 7.25037 1.29102V0.75C7.25037 0.335786 7.58615 0 8.00037 0ZM8.75037 13.1973C10.5859 12.9343 11.2494 11.7194 11.2494 11C11.2494 10.5527 11.1515 10.2478 11.016 10.0264C10.879 9.80266 10.6735 9.61407 10.3822 9.4502C9.94916 9.20668 9.39715 9.05043 8.75037 8.91211V13.1973ZM7.25037 2.80176C5.41461 3.06511 4.74939 4.28126 4.74939 5C4.74939 5.44701 4.84738 5.75223 4.98279 5.97363C5.11971 6.19736 5.32628 6.38591 5.61755 6.5498C6.05066 6.79335 6.60345 6.94854 7.25037 7.08691V2.80176Z"
    fill="currentColor"
  />
</svg>

<svg xmlns="http://www.w3.org/2000/svg" width="16" height="16" fill="none" data-fui-icon="true" viewBox="0 0 16 16"><path fill="currentColor" d="M8 0a.75.75 0 0 1 .75.75v.54c2.68.276 3.768 2.02 3.984 3.058a.75.75 0 1 1-1.469.304c-.089-.426-.647-1.6-2.515-1.853V7.38c.808.16 1.668.37 2.368.763.458.257.877.608 1.177 1.1q.454.74.454 1.756c0 1.64-1.403 3.419-3.999 3.708v.542a.75.75 0 0 1-1.5 0v-.541c-1.204-.13-2.092-.57-2.73-1.132a4.35 4.35 0 0 1-1.256-1.923.751.751 0 0 1 1.43-.456c.1.316.333.826.818 1.253.368.324.916.63 1.738.747V8.62c-.807-.16-1.669-.37-2.368-.763-.458-.257-.878-.608-1.179-1.1Q3.25 6.017 3.25 5c0-1.64 1.407-3.42 4.001-3.709V.75A.75.75 0 0 1 8 0m.75 13.197c1.836-.263 2.5-1.478 2.5-2.197 0-.447-.098-.752-.234-.974-.137-.223-.342-.412-.634-.576-.433-.243-.985-.4-1.632-.538zM7.25 2.802c-1.835.263-2.5 1.48-2.5 2.198 0 .447.097.752.233.974.137.223.343.412.635.576.433.243.985.399 1.632.537z"/></svg>
